!!!!SEGMENT: pl-wnifc--2374-n--004_mikuli-karol--sieben-lieder-op-27-wandrer-s-nachtlied.krn
!!!cenid: 18xx:3893
!!!COM: Mikuli, Karol
!!!COM-rismID: pe106110
!!!CDT: 1819-1897
!!!CNT:
!!!GTL: Sieben lieder op. 27
!!!OTL: Wandrer's Nachtlied
!!!PDT: 1880
!!!AGN:
!!!SMS-siglum: PL-Wnifc
!!!SMS-shelfmark: 2374/n
!!!SMS-shelfwork: 004 G
!!!SMS-variant:
!!!SMS-altvar:
!!!NIFC-rismSourceID: 1001155261
!!!NIFC-islandoraID: nifc:211968
!!!URL-pdf-islandora: https://repozytorium.nifc.pl/islandora/object/nifc%3A211968/datastream/PDF/view
!!!URL-scan: https://polish.musicsources.pl/pl/lokalizacje/galeria/druki-muzyczne/16819 @EN{Scan on Polish Music Sources Website} @PL{Skany w portalu Dziedzictwo Muzyki Polskiej w otwartym dostępie}
!!!ONB-nifc:
!!!AIN: 1 piano 1 soprn
!!!key: G-
**kern	**kern	**dynam	**kern	**text	**dynam
*part2	*part2	*part2	*part1	*part1	*part1
*staff3	*staff2	*	*staff1	*staff1	*
*I"Pianoforte.	*	*	*I"Singstimme.	*	*
*I'pf	*	*	*I'V	*	*
*ICklav	*ICklav	*	*ICvox	*	*
*Ipiano	*	*	*Isoprn	*	*
*clefF4	*clefG2	*	*clefG2	*	*
*k[b-e-a-d-g-c-]	*k[b-e-a-d-g-c-]	*	*k[b-e-a-d-g-c-]	*	*
*G-:	*G-:	*	*G-:	*	*
*M3/2	*M3/2	*	*M3/2	*	*
=1	=1	=1	=1	=1	=1
*	*^	*	*	*	*
!	!LO:TX:b:i:t=gebunden	!	!	!LO:TX:a:B:t=Andante religioso.	!	!
4G-\	(4b- 4g-/	4d-/	p	1.r	.	.
4D-\	4a- 4f/	4c-/	.	.	.	.
4E-\	2g-/	2B-/	.	.	.	.
4d- 4D-\	.	.	.	.	.	.
4c- 4C-\	4a-/	[2e-\	.	.	.	.
4B- 4BB-\	4b- 4gn/	.	.	.	.	.
=2	=2	=2	=2	=2	=2	=2
4A- 4AA-\	4cc- 4a-/	2e-\]	.	1.r	.	.
4G- 4GG-/	4b-/	.	.	.	.	.
4F 4FF/	4a-\	2a-/	.	.	.	.
4E- 4EE-/	4g-X/	.	.	.	.	.
4D- 4DD-/	4b-/	4f\	.	.	.	.
4C- 4CC-/	4cc-/	4e-\	.	.	.	.
=3	=3	=3	=3	=3	=3	=3
4BB- 4BBB-/	4dd-/	4d-\	.	1.r	.	.
4AA- 4AAA-/	8ee-/L	4cc-\	.	.	.	.
.	8ff/J	.	.	.	.	.
4GG- 4GGG-/	4gg-/	4b-\	.	.	.	.
4FF 4FFF/	4dd-/	4a-\	.	.	.	.
4EE- 4EEE-/	4cc-/	4g-\	.	.	.	.
4DD-/	4b-/	4f\	.	.	.	.
=4	=4	=4	=4	=4	=4	=4
*	*	*^	*	*	*	*
4C- 4CC-/	4a-/	[2g-\	4e-\	.	1.r	.	.
8BB-L 8BBB-/	8b-/L	.	8d-\L	.	.	.	.
8AA-J 8AAA-/	8cc-/J	.	8c-\J	.	.	.	.
4BB- 4BBB-/	2b-/	2g-/]	4d-\	.	.	.	.
4C- 4CC-/	.	.	[4e-\	.	.	.	.
2D- 2DD-/	2a-/	2f/	8e-\L]	.	.	.	.
.	.	.	8c-\	.	.	.	.
.	.	.	8e-\	.	.	.	.
.	.	.	8d-\J)	.	.	.	.
*	*v	*v	*v	*	*	*	*
!!LO:LB:g=original
=5	=5	=5	=5	=5	=5
.	8qB-/	p	.	.	.
!	!	!	!	!	!LO:DY:a
4G- 4GG-\	(4b-: 4g-: 4d-: 4B-:/	.	4b-\	Der	p
4D-\	4a- 4f 4c-/	.	4a-/	du	.
4E-\	[4g- 4B-/	.	4g-/	von	.
4AA-/	[4a- 4g-] [4c-/	.	4a-/	dem	.
[2D-\	4a-] 4f 4c-/]	.	4a-/	Him-	.
.	4b- 4f 4c-/	.	4b-\	-mel	.
=6	=6	=6	=6	=6	=6
!	!	!	!	!	!LO:DY:a
1.D-] 1.GG-;	1.b- 1.g- 1.B-;)	.	1.b-;	bist,	>]
=7	=7	=7	=7	=7	=7
*	*^	*	*	*	*
*	*	*^	*	*	*	*
4G-\	(4b-/	4g-/	4d-/	.	4b-\	Al-	.
4F\	4b-/	4g-/	4dn/	.	4b-\	-les	.
4E-\	2b-/	2g-/	2e-/	.	4b-\	Leid	.
4D-X\	.	.	.	.	4b-\	und	.
4C-/	4ee-/	2a-\	4e-\	.	4ee-\	Schmer-	.
4BB-\	4ff/	.	4dn\	.	4ff\	-zen	.
*	*v	*v	*v	*	*	*	*
=8	=8	=8	=8	=8	=8
1.e- 1.E-;	1.gg- 1.g-;)	.	1.gg-;	stillst,	>]
=9	=9	=9	=9	=9	=9
*	*^	*	*	*	*
*	*	*^	*	*	*	*
4d-\	(4ff/	4b-/	4reyy	.	4ff\	den,	.
4cn\	4ee-/	4an/	2f\	.	4ee-\	der	.
4B-\	4dd-/	4b-/	.	.	4dd-\	dop-	.
4E-\	2cc-/	2bn/	4g-\	.	4ccn\	-pelt	.
[2F\	.	.	4f\	.	4cc\	e-	.
.	4dd-/	4a/	4e-\	.	4dd-\	-lend	.
*	*v	*v	*v	*	*	*	*
=10	=10	=10	=10	=10	=10
1.F] 1.BB-	1.dd- 1.b- 1.d-;)	.	1.dd-;	ist,	>]
!!LO:LB:g=original
=11	=11	=11	=11	=11	=11
*^	*^	*	*	*	*
4E-/	2r	2.b- 2.d-/	4gn\	.	(4b-\	dop-	.
4En/	.	.	4g-X\	.	4b-\	-pelt	.
2F/	4r	.	2f\	.	4b-\	mit	.
.	2.FF\	2dd-/	.	.	4dd-\	Er-	.
4Gn/	.	.	4en\	.	4dd-\	-quic-	.
4An/	.	4ccn/	4e-X\	.	4ccn\	-kung	.
=12	=12	=12	=12	=12	=12	=12	=12
1.B-;	1.BB-	1.dd-;	1.d-	.	1.b-;)	füllst;	.
*v	*v	*	*	*	*	*	*
=13	=13	=13	=13	=13	=13	=13
*	*	*^	*	*	*	*
2.AA- 2.AAA-/	4dd-/	1g-	2.e-\	.	4dd-\	ach,	.
.	8r	.	.	.	8r	.	.
!	!	!	!	!	!	!	!LO:DY:a
.	8cc-/	.	.	.	8cc-\	ich	>
.	4cc-/	.	.	.	4cc-\	bin	.
4BB- 4BBB-/	4b-/	.	4d-/	.	4b-\	des	.
4C- 4CC-/	4a-/	2ryy	4e-/	.	4a-/	Trei-	.
4Cn 4CCn/	4g-/	.	4e- 4B--/	.	4g-/	-bens	.
*	*	*v	*v	*	*	*	*
=14	=14	=14	=14	=14	=14	=14
*^	*	*	*	*	*	*
1A- 1D-	1DD-	1f	(2d-\	.	(4.f/	mü-	.
.	.	.	.	.	16a-/LL	.	.
.	.	.	.	.	16g-/JJ)	.	.
.	.	.	2c-\	.	4f/	-de,	.
.	.	.	.	.	4r	.	]
2A-/	2Dn 2DDn\	2f/	2B-\)	.	4b-\	was	.
.	.	.	.	.	4b-\	soll	.
*v	*v	*	*	*	*	*	*
=15	=15	=15	=15	=15	=15	=15
!	!	!	!	!	!	!LO:DY:a
1G- 1E- 1EE-	1e-	1B-	.	(4b-/	all-	>
.	.	.	.	4g-/	.	.
.	.	.	.	4f/)	.	.
.	.	.	.	4e-/	-der	.
.	.	.	.	8qe--/	.	]
(2F 2C-/	(2a-/	2e--/	.	4cc-\	Schmerz	.
.	.	.	.	4cc-\	und	.
*	*v	*v	*	*	*	*
!!LO:LB:g=original
=16	=16	=16	=16	=16	=16
1.F 1.D-)	1.a- 1.d-)	.	(2cc-\	Lust!	.
.	.	.	1d-)	.	.
=17	=17	=17	=17	=17	=17
*^	*	*	*	*	*
!	!	!	!	!LO:TX:a:i:t=sehr sanft	!	!LO:DY:a
2.G- 2.D-\	2.GG-\	(2.b- 2.d- 2.B-/	>	2.dd-\	Sü-	>
4B-/	[4D-\	4g- 4d-/	.	4g-/	-sser	.
4A-/	2D-\_	4f 4c-/	.	4f/	Frie-	.
4G-/	.	4e- 4B-/	.	4e-/	-de,	]]
=18	=18	=18	=18	=18	=18	=18
*	*	*^	*	*	*	*
8En/L	1.D-]	8cnL 8Gn/	4ryy	]	8cn/L	ste-	.
8F/J	.	8d-J 8A-/	.	.	8d-/J	-ig'	.
8A-/L	.	8f/L	[4c-X\	.	8f/L	her-	.
8G-X/J	.	8e-X/J)	.	.	8e-/J	.	.
2F/	.	2ryy	8d-L 8c-/]	.	4d-/	-ab,	.
.	.	.	(8d-'/	.	.	.	.
.	.	.	8e-'/	.	4r	.	.
.	.	.	8f'/J	.	.	.	.
2r	.	2ryy	8g-'/L	<	2r	.	.
.	.	.	8a-'/	.	.	.	.
.	.	.	8b-'/	.	.	.	.
.	.	.	8cc-'/J)	.	.	.	.
*	*	*v	*v	*	*	*	*
=19	=19	=19	=19	=19	=19	=19
2.G- 2.D-/	2.GG-/	(2.dd- 2.g- 2.B-/	[	1r	.	.
!	!	!LO:TX:a:i:t=sehr sanft	!	!	!	!
4B-/	[4D-\	4g- 4d-/	>	.	.	.
!	!	!	!	!	!	!LO:DY:a
4A-/	2D-\_	4f 4c-/	.	[2dd-\	komm',	<[
4G-/	.	4e- 4B-/	.	.	.	.
=20	=20	=20	=20	=20	=20	=20
*	*	*^	*	*	*	*
!	!	!	!	!	!	!	!LO:DY:a
*	*	*	*	*	*	*ij	*
8En/L	1D-]	8cnL 8Gn/	4ryy	]	1dd-]	komm;	>
8F/	.	8d- 8A-/	.	.	.	.	.
8A-/	.	8f/	[4c-X\	.	.	.	.
8G-X/J	.	8e-X/J	.	.	.	.	]
*	*	*	*	*	*	*Xij	*
2F/	.	2d-/)	2c-/]	.	.	.	.
2B-/	2Gn\	2dd-/	2f-X/	.	4r	.	.
.	.	.	.	.	4dd-\	ach	.
*	*	*v	*v	*	*	*	*
!!LO:LB:g=original
=21	=21	=21	=21	=21	=21	=21
4c-\	4A-\	4cc- 4e-/	.	4cc-\	komm'	.
4d-\	4B-\	4gn 4f-X/	.	4b-\	in	.
2c-\	2ryy	2a- 2e-/	.	2a-/	mei-	.
[2d-/	2D-\	[2b- 2fn 2c-/	.	2b-\	-ne	.
=22	=22	=22	=22	=22	=22	=22
*	*	*^	*	*	*	*
*	*	*	*^	*	*	*	*
4d-/]	1G-	4b-] 4g-X/	1cc-	4B-/	.	4b-\	Brust,	.
4ryy	.	(4aa- 4a-/	.	(4f\	.	4r	.	.
2ryy	.	4gg- 4g-/	.	4e-\	.	2r	.	.
.	.	4ff 4f/	.	4dn\	.	.	.	.
4ryy	2ryy	4gg- 4g-/	2ryy	4e-\	.	2r	.	.
4c-/)	.	4ee- 4g-/	.	4e-/	.	.	.	.
*	*	*v	*v	*v	*	*	*	*
=23	=23	=23	=23	=23	=23	=23
!	!	!	!	!LO:TX:a:i:t=langsamer	!	!LO:DY:a
4B-/	4G-\	4dd-X 4g- 4d-X/)	.	4dd-\	komm',	<
4d-\	4D-\	(4dd- 4a- 4f/	.	4dd-\	ach	.
4c-\	4C-\	4ee- 4cc- 4g-\	.	4ee-\	komm'	.
!	!	!LO:TX:b:i:t=der Stimme folgend	!	!	!	!LO:DY:a
4B-\	4BB-\	4ff 4ddn 4b-\	.	4ff\	in	[ >
4E-/	4EE-/	4gg- 4ee- 4b-\	.	4gg-\	mei-	.
4F/	4FF/	4dd-X 4a- 4d-X/	.	4dd-\	-ne	]]
=24	=24	=24	=24	=24	=24	=24
*	*	*^	*	*	*	*
!	!	!	!	!LO:DY:a	!	!	!
4D-/	1GG-	(2.g-/)	4B-\	>	2g-/	Brust.	.
4C-/	.	.	4A-\	.	.	.	.
4D-/	.	.	2B-\	.	2r	.	.
4BB-/	.	4g-/	.	.	.	.	.
[2D-/	2DD-\	4b- 4g-/	2c-\	.	2r	.	.
.	.	4a- 4f/	.	.	.	.	.
*	*	*v	*v	*	*	*	*
=25	=25	=25	=25	=25	=25	=25
2D-/]	2GG-\	2g- 2B-/)	]	1.r	.	.
2D-/	2GG-\	(2g- 2B-'/	pp	.	.	.
2E--/	2GG-\	2g- 2An'/)	.	.	.	.
*v	*v	*	*	*	*	*
=26	=26	=26	=26	=26	=26
1.D- 1.GG-;	1.g- 1.B-;	.	1.r;	.	.
==	==	==	==	==	==
*-	*-	*-	*-	*-	*-
!!!system-decoration: s1{(s2,s3)}
!!!ENC: Marta Opryszak
!!!END: 2022-07-25
!!!ENC: Urszula Świątek
!!!END: 2022-08-17
!!!YEC: Copyright 2022 Narodowy Instytut Fryderyka Chopina (https://polishscores.org)
!!!YEM: Licence CC BY 4.0 (https://creativecommons.org/licenses/by/4.0)
